X: 585
T: Ku xinbing
L: 1/16
M: 2/4
K: F
d2 d c d2 d c [I:setbarnb 1]| 
A2 d2c4 | 
d f d c A c A G | 
A4D4 | 
G4F4 | 
c2 c c A2 c2 | 
F2 A AG4 | 
f2> g2 e2 e d | 
c2> d2c4 |]

@@@ Tune index: 9459
